X:1
T: Dodo's Reel
C:
R:Reel
Q: 232
K:A
M:4/4
L:1/8
|:cd ef d2 a2|cd ec e3e|fd af e2 ae|fg ab ge ed|
cd ef d2 a2|AB cd e2 AG|FG AF E2 Ac|ed cB A2 e2|
AB cd e2 fg|af df e2 fg|ag ag fe dc|BA GF ED CB,|
A,B, CD E2 AB|cd ef e2 ag|fd af e2 a2|ed cB A4:|
